X:1
T:Elez, LMD
T:Elez, LMD
T:Benjamin Franklin Alleman, 1885
T:Public Domain Courtesy of the Cyber Hymnal™
C:Benjamin Franklin Alleman, 1885
Z:Public Domain
Z:Courtesy of the Cyber Hymnal™
%%score 1 ( 2 3 )
L:1/8
Q:1/4=90
M:6/8
K:Bb
V:1 treble 
V:2 bass 
V:3 bass 
V:1
 [DF] | [DB][DB][DB] [DB][B,D][B,E] | [DF]3- [DF]2 [DF] | [Fc][Fc][Fc] [Fc][Fc][Fd] | %4
 [Fc]3- [Fc]2 [Fd] | [DB][DB][DB] [DB][Fd][FB] | [EG]3- [EG]2 [EG] | [DF][FB][Bd] [Bf][Ae][Fc] | %8
 [FB]3- [FB]2 [FB]/[FB]/ | [Fc][Fc][Fc] [Fc][Af][Af] | ([Bf]3 [Fd]2) [FB] | %11
 [Fc][Fc][Fc] [Fc][Ff][Fe] | [Fd]3- [Fd]2 [DF] | [FB][FB][FB] [FB][Fd][FB] | [EG]3- [EG]2 [Ge] | %15
 [Fd][FB][Fd] [Fc][FA][Fc] | [FB]3- [FB]2 |] %17
V:2
 [B,,B,] | [B,,F,][B,,F,][B,,F,] [B,,F,][B,,F,][B,,F,] | [B,,B,]3- [B,,B,]2 [B,,B,] | %3
 [F,A,][F,A,][F,A,] [F,A,][F,B,][F,B,] | [F,A,]3- [F,A,]2 [F,B,] | %5
 [B,,F,][B,,F,][B,,F,] [B,,F,][B,,B,][D,B,] | [E,B,]3- [E,B,]2 [E,B,] | %7
 [F,B,][F,B,][F,B,] [F,D][F,C][F,E] | [B,,D]3- [B,,D]2 [B,,B,]/[B,,B,]/ | %9
 [F,A,][F,A,][F,A,] [F,A,][F,C][F,C] | ([B,-D]3 _B,2) [B,,B,] | %11
 [F,A,][F,A,][F,A,] [F,A,][F,D][F,C] | [B,,B,]3- [B,,B,]2 [B,,B,] | %13
 [B,,D][B,,D][B,,D] [B,,D][B,,B,][D,B,] | [E,B,]3- [E,B,]2 [E,B,] | %15
 [F,B,][F,B,][F,B,] [F,A,][F,C][F,E] | [B,,D]3- [B,,D]2 |] %17
V:3
 x | x6 | x6 | x6 | x6 | x6 | x6 | x6 | x6 | x6 | x3 _B,2 x | x6 | x6 | x6 | x6 | x6 | x5 |] %17

